**harm	**harte	**timestamp	**phrase	**leadinstrument	**kern
*M4/4	*M4/4	*	*	*	*
*a:	*a:	*	*	*	*a:
1r;	N	0	.	r	1r;
=1	=1	=1	=1	=1	=1
*>A_intro	*>A_intro	*>A_intro	*>A_intro	*>A_intro	*>A_intro
1r	N	0.209	newline	r	1r
=2	=2	=2	=2	=2	=2
4i7d	A:min7/b7	2.299	newline	synthesizer	4a 4cc 4ee 4G#
4i7g	A:min7/6	2.825	.	synthesizer	4A 4cc 4ee 4gg#
2V+7	E:aug(b7)	3.352	.	synthesizer	2E 2g# 2b# 2dd
=3	=3	=3	=3	=3	=3
2V+7	E:aug(b7)	4.405	.	synthesizer	2E 2g# 2b# 2dd
2i7	A:min9	5.458	.	synthesizer	2A 2cc 2ee 2gg#
=4	=4	=4	=4	=4	=4
4i7d	A:min7/b7	6.511	.	synthesizer	4a 4cc 4ee 4G#
4i7g	A:min7/6	7.038	.	synthesizer	4A 4cc 4ee 4gg#
2V+7	E:aug(b7)	7.564	.	synthesizer	2E 2g# 2b# 2dd
=5	=5	=5	=5	=5	=5
1r	N	8.617	.	synthesizer	1r
=6	=6	=6	=6	=6	=6
*>B_verse	*>B_verse	*>B_verse	*>B_verse	*>B_verse	*>B_verse
4i7d	A:min7/b7	10.723	newline	synthesizer	4a 4cc 4ee 4G#
4i7g	A:min7/6	11.245	.	synthesizer	4A 4cc 4ee 4gg#
2V+7	E:aug(b7)	11.767	.	synthesizer	2E 2g# 2b# 2dd
=7	=7	=7	=7	=7	=7
2V+7	E:aug(b7)	12.811	.	synthesizer	2E 2g# 2b# 2dd
2i7	A:min9	13.854	.	synthesizer	2A 2cc 2ee 2gg#
=8	=8	=8	=8	=8	=8
4i7d	A:min7/b7	14.898	.	synthesizer	4a 4cc 4ee 4G#
4i7g	A:min7/6	15.42	.	synthesizer	4A 4cc 4ee 4gg#
2V+7	E:aug(b7)	15.942	.	synthesizer	2E 2g# 2b# 2dd
=9	=9	=9	=9	=9	=9
2V+7	E:aug(b7)	16.985	.	synthesizer	2E 2g# 2b# 2dd
2i7	A:min9	18.029	.	synthesizer	2A 2cc 2ee 2gg#
=10	=10	=10	=10	=10	=10
4i7d	A:min7/b7	19.073	newline	synthesizer	4a 4cc 4ee 4G#
4i7g	A:min7/6	19.6	.	synthesizer	4A 4cc 4ee 4gg#
2V+7	E:aug(b7)	20.127	.	synthesizer	2E 2g# 2b# 2dd
=11	=11	=11	=11	=11	=11
2V+7	E:aug(b7)	21.182	.	synthesizer	2E 2g# 2b# 2dd
2i7	A:min9	22.236	.	synthesizer	2A 2cc 2ee 2gg#
=12	=12	=12	=12	=12	=12
4i7d	A:min7/b7	23.291	.	synthesizer	4a 4cc 4ee 4G#
4i7g	A:min7/6	23.818	.	synthesizer	4A 4cc 4ee 4gg#
2V+7	E:aug(b7)	24.345	.	synthesizer	2E 2g# 2b# 2dd
=13	=13	=13	=13	=13	=13
1r	N	25.399	.	synthesizer	1r
=14	=14	=14	=14	=14	=14
*>C_chorus	*>C_chorus	*>C_chorus	*>C_chorus	*>C_chorus	*>C_chorus
4i7d	A:min7/b7	27.508	newline	synthesizer	4a 4cc 4ee 4G#
4i7g	A:min7/6	28.03	.	synthesizer	4A 4cc 4ee 4gg#
2V+7	E:aug(b7)	28.551	.	synthesizer	2E 2g# 2b# 2dd
=15	=15	=15	=15	=15	=15
2V+7	E:aug(b7)	29.594	.	synthesizer	2E 2g# 2b# 2dd
2i7	A:min9	30.637	.	synthesizer	2A 2cc 2ee 2gg#
=16	=16	=16	=16	=16	=16
4i7d	A:min7/b7	31.68	.	synthesizer	4a 4cc 4ee 4G#
4i7g	A:min7/6	32.201	.	synthesizer	4A 4cc 4ee 4gg#
2V+7	E:aug(b7)	32.723	.	synthesizer	2E 2g# 2b# 2dd
=17	=17	=17	=17	=17	=17
2V+7	E:aug(b7)	33.766	.	synthesizer	2E 2g# 2b# 2dd
2i7	A:min9	34.809	.	synthesizer	2A 2cc 2ee 2gg#
=18	=18	=18	=18	=18	=18
4i7d	A:min7/b7	35.852	newline	synthesizer	4a 4cc 4ee 4G#
4i7g	A:min7/6	36.377	.	synthesizer	4A 4cc 4ee 4gg#
2V+7	E:aug(b7)	36.902	.	synthesizer	2E 2g# 2b# 2dd
=19	=19	=19	=19	=19	=19
2V+7	E:aug(b7)	37.953	.	synthesizer	2E 2g# 2b# 2dd
2i7	A:min9	39.004	.	synthesizer	2A 2cc 2ee 2gg#
=20	=20	=20	=20	=20	=20
4i7d	A:min7/b7	40.054	.	synthesizer	4a 4cc 4ee 4G#
4i7g	A:min7/6	40.58	.	synthesizer	4A 4cc 4ee 4gg#
2V+7	E:aug(b7)	41.105	.	synthesizer	2E 2g# 2b# 2dd
=21	=21	=21	=21	=21	=21
1r	N	42.156	.	synthesizer	1r
=22	=22	=22	=22	=22	=22
*>B_verse	*>B_verse	*>B_verse	*>B_verse	*>B_verse	*>B_verse
4i7d	A:min7/b7	44.257	newline	synthesizer	4a 4cc 4ee 4G#
4i7g	A:min7/6	44.78	.	synthesizer	4A 4cc 4ee 4gg#
2V+7	E:aug(b7)	45.303	.	synthesizer	2E 2g# 2b# 2dd
=23	=23	=23	=23	=23	=23
2V+7	E:aug(b7)	46.349	.	synthesizer	2E 2g# 2b# 2dd
2i7	A:min9	47.395	.	synthesizer	2A 2cc 2ee 2gg#
=24	=24	=24	=24	=24	=24
4i7d	A:min7/b7	48.441	.	synthesizer	4a 4cc 4ee 4G#
4i7g	A:min7/6	48.964	.	synthesizer	4A 4cc 4ee 4gg#
2V+7	E:aug(b7)	49.487	.	synthesizer	2E 2g# 2b# 2dd
=25	=25	=25	=25	=25	=25
2V+7	E:aug(b7)	50.533	.	synthesizer	2E 2g# 2b# 2dd
2i7	A:min9	51.579	.	synthesizer	2A 2cc 2ee 2gg#
=26	=26	=26	=26	=26	=26
4i7d	A:min7/b7	52.625	newline	synthesizer	4a 4cc 4ee 4G#
4i7g	A:min7/6	53.152	.	synthesizer	4A 4cc 4ee 4gg#
2V+7	E:aug(b7)	53.679	.	synthesizer	2E 2g# 2b# 2dd
=27	=27	=27	=27	=27	=27
2V+7	E:aug(b7)	54.734	.	synthesizer	2E 2g# 2b# 2dd
2i7	A:min9	55.788	.	synthesizer	2A 2cc 2ee 2gg#
=28	=28	=28	=28	=28	=28
4i7d	A:min7/b7	56.842	.	synthesizer	4a 4cc 4ee 4G#
4i7g	A:min7/6	57.369	.	synthesizer	4A 4cc 4ee 4gg#
2V+7	E:aug(b7)	57.897	.	synthesizer	2E 2g# 2b# 2dd
=29	=29	=29	=29	=29	=29
1r	N	58.951	.	synthesizer	1r
=30	=30	=30	=30	=30	=30
*>C_chorus	*>C_chorus	*>C_chorus	*>C_chorus	*>C_chorus	*>C_chorus
4i7d	A:min7/b7	61.059	newline	synthesizer	4a 4cc 4ee 4G#
4i7g	A:min7/6	61.58	.	synthesizer	4A 4cc 4ee 4gg#
2V+7	E:aug(b7)	62.102	.	synthesizer	2E 2g# 2b# 2dd
=31	=31	=31	=31	=31	=31
2V+7	E:aug(b7)	63.144	.	synthesizer	2E 2g# 2b# 2dd
2i7	A:min9	64.186	.	synthesizer	2A 2cc 2ee 2gg#
=32	=32	=32	=32	=32	=32
4i7d	A:min7/b7	65.228	.	synthesizer	4a 4cc 4ee 4G#
4i7g	A:min7/6	65.749	.	synthesizer	4A 4cc 4ee 4gg#
2V+7	E:aug(b7)	66.27	.	synthesizer	2E 2g# 2b# 2dd
=33	=33	=33	=33	=33	=33
2V+7	E:aug(b7)	67.312	.	synthesizer	2E 2g# 2b# 2dd
2i7	A:min9	68.355	.	synthesizer	2A 2cc 2ee 2gg#
=34	=34	=34	=34	=34	=34
4i7d	A:min7/b7	69.397	newline	voice	4a 4cc 4ee 4G#
4i7g	A:min7/6	69.92	.	voice	4A 4cc 4ee 4gg#
2V+7	E:aug(b7)	70.443	.	voice	2E 2g# 2b# 2dd
=35	=35	=35	=35	=35	=35
2V+7	E:aug(b7)	71.489	.	voice	2E 2g# 2b# 2dd
2i7	A:min9	72.534	.	voice	2A 2cc 2ee 2gg#
=36	=36	=36	=36	=36	=36
4i7d	A:min7/b7	73.58	.	voice	4a 4cc 4ee 4G#
4i7g	A:min7/6	74.103	.	voice	4A 4cc 4ee 4gg#
2V+7	E:aug(b7)	74.626	.	voice	2E 2g# 2b# 2dd
=37	=37	=37	=37	=37	=37
1r	N	75.672	.	voice	1r
=38	=38	=38	=38	=38	=38
*>C_solo	*>C_solo	*>C_solo	*>C_solo	*>C_solo	*>C_solo
4i7d	A:min7/b7	77.764	newline	synthesizer	4a 4cc 4ee 4G#
4i7g	A:min7/6	78.29	.	synthesizer	4A 4cc 4ee 4gg#
2V+7	E:aug(b7)	78.816	.	synthesizer	2E 2g# 2b# 2dd
=39	=39	=39	=39	=39	=39
2V+7	E:aug(b7)	79.868	.	synthesizer	2E 2g# 2b# 2dd
2i7	A:min9	80.92	.	synthesizer	2A 2cc 2ee 2gg#
=40	=40	=40	=40	=40	=40
4i7d	A:min7/b7	81.971	.	synthesizer	4a 4cc 4ee 4G#
4i7g	A:min7/6	82.497	.	synthesizer	4A 4cc 4ee 4gg#
2V+7	E:aug(b7)	83.023	.	synthesizer	2E 2g# 2b# 2dd
=41	=41	=41	=41	=41	=41
2V+7	E:aug(b7)	84.075	.	synthesizer	2E 2g# 2b# 2dd
2i7	A:min9	85.127	.	synthesizer	2A 2cc 2ee 2gg#
=42	=42	=42	=42	=42	=42
4i7d	A:min7/b7	86.179	newline	synthesizer	4a 4cc 4ee 4G#
4i7g	A:min7/6	86.702	.	synthesizer	4A 4cc 4ee 4gg#
2V+7	E:aug(b7)	87.224	.	synthesizer	2E 2g# 2b# 2dd
=43	=43	=43	=43	=43	=43
2V+7	E:aug(b7)	88.269	.	synthesizer	2E 2g# 2b# 2dd
2i7	A:min9	89.314	.	synthesizer	2A 2cc 2ee 2gg#
=44	=44	=44	=44	=44	=44
4i7d	A:min7/b7	90.359	.	synthesizer	4a 4cc 4ee 4G#
4i7g	A:min7/6	90.882	.	synthesizer	4A 4cc 4ee 4gg#
2V+7	E:aug(b7)	91.404	.	synthesizer	2E 2g# 2b# 2dd
=45	=45	=45	=45	=45	=45
1r	N	92.449	.	synthesizer	1r
=46	=46	=46	=46	=46	=46
*>B2_verse	*>B2_verse	*>B2_verse	*>B2_verse	*>B2_verse	*>B2_verse
1r	N	94.539	newline	voice	1r
=47	=47	=47	=47	=47	=47
1r	N	96.64	.	voice	1r
=48	=48	=48	=48	=48	=48
1r	N	98.741	.	voice	1r
=49	=49	=49	=49	=49	=49
1r	N	100.842	.	voice	1r
=50	=50	=50	=50	=50	=50
4i7d	A:min7/b7	102.943	newline	voice	4a 4cc 4ee 4G#
4i7g	A:min7/6	103.466	.	voice	4A 4cc 4ee 4gg#
2V+7	E:aug(b7)	103.99	.	voice	2E 2g# 2b# 2dd
=51	=51	=51	=51	=51	=51
2V+7	E:aug(b7)	105.036	.	voice	2E 2g# 2b# 2dd
2i7	A:min9	106.083	.	voice	2A 2cc 2ee 2gg#
=52	=52	=52	=52	=52	=52
4i7d	A:min7/b7	107.13	.	voice	4a 4cc 4ee 4G#
4i7g	A:min7/6	107.653	.	voice	4A 4cc 4ee 4gg#
2V+7	E:aug(b7)	108.176	.	voice	2E 2g# 2b# 2dd
=53	=53	=53	=53	=53	=53
2V+7	E:aug(b7)	109.223	.	voice	2E 2g# 2b# 2dd
2i7	A:min9	110.27	.	voice	2A 2cc 2ee 2gg#
=54	=54	=54	=54	=54	=54
4i7d	A:min7/b7	111.316	newline	voice	4a 4cc 4ee 4G#
4i7g	A:min7/6	111.843	.	voice	4A 4cc 4ee 4gg#
2V+7	E:aug(b7)	112.369	.	voice	2E 2g# 2b# 2dd
=55	=55	=55	=55	=55	=55
2V+7	E:aug(b7)	113.422	.	voice	2E 2g# 2b# 2dd
2i7	A:min9	114.475	.	voice	2A 2cc 2ee 2gg#
=56	=56	=56	=56	=56	=56
4i7d	A:min7/b7	115.528	.	voice	4a 4cc 4ee 4G#
4i7g	A:min7/6	116.055	.	voice	4A 4cc 4ee 4gg#
2V+7	E:aug(b7)	116.581	.	voice	2E 2g# 2b# 2dd
=57	=57	=57	=57	=57	=57
1r	N	117.634	.	voice	1r
=58	=58	=58	=58	=58	=58
*>C_chorus	*>C_chorus	*>C_chorus	*>C_chorus	*>C_chorus	*>C_chorus
4i7d	A:min7/b7	119.74	newline	voice	4a 4cc 4ee 4G#
4i7g	A:min7/6	120.262	.	voice	4A 4cc 4ee 4gg#
2V+7	E:aug(b7)	120.784	.	voice	2E 2g# 2b# 2dd
=59	=59	=59	=59	=59	=59
2V+7	E:aug(b7)	121.828	.	voice	2E 2g# 2b# 2dd
2i7	A:min9	122.872	.	voice	2A 2cc 2ee 2gg#
=60	=60	=60	=60	=60	=60
4i7d	A:min7/b7	123.916	.	voice	4a 4cc 4ee 4G#
4i7g	A:min7/6	124.438	.	voice	4A 4cc 4ee 4gg#
2V+7	E:aug(b7)	124.96	.	voice	2E 2g# 2b# 2dd
=61	=61	=61	=61	=61	=61
2V+7	E:aug(b7)	126.004	.	voice	2E 2g# 2b# 2dd
2i7	A:min9	127.048	.	voice	2A 2cc 2ee 2gg#
=62	=62	=62	=62	=62	=62
4i7d	A:min7/b7	128.092	newline	voice	4a 4cc 4ee 4G#
4i7g	A:min7/6	128.617	.	voice	4A 4cc 4ee 4gg#
2V+7	E:aug(b7)	129.141	.	voice	2E 2g# 2b# 2dd
=63	=63	=63	=63	=63	=63
2V+7	E:aug(b7)	130.191	.	voice	2E 2g# 2b# 2dd
2i7	A:min9	131.24	.	voice	2A 2cc 2ee 2gg#
=64	=64	=64	=64	=64	=64
4i7d	A:min7/b7	132.29	.	voice	4a 4cc 4ee 4G#
4i7g	A:min7/6	132.814	.	voice	4A 4cc 4ee 4gg#
2V+7	E:aug(b7)	133.339	.	voice	2E 2g# 2b# 2dd
=65	=65	=65	=65	=65	=65
1r	N	134.388	.	voice	1r
=66	=66	=66	=66	=66	=66
*>B_verse	*>B_verse	*>B_verse	*>B_verse	*>B_verse	*>B_verse
4i7d	A:min7/b7	136.487	newline	voice	4a 4cc 4ee 4G#
4i7g	A:min7/6	137.011	.	voice	4A 4cc 4ee 4gg#
2V+7	E:aug(b7)	137.536	.	voice	2E 2g# 2b# 2dd
=67	=67	=67	=67	=67	=67
2V+7	E:aug(b7)	138.585	.	voice	2E 2g# 2b# 2dd
2i7	A:min9	139.633	.	voice	2A 2cc 2ee 2gg#
=68	=68	=68	=68	=68	=68
4i7d	A:min7/b7	140.682	.	voice	4a 4cc 4ee 4G#
4i7g	A:min7/6	141.207	.	voice	4A 4cc 4ee 4gg#
2V+7	E:aug(b7)	141.731	.	voice	2E 2g# 2b# 2dd
=69	=69	=69	=69	=69	=69
2V+7	E:aug(b7)	142.78	.	voice	2E 2g# 2b# 2dd
2i7	A:min9	143.829	.	voice	2A 2cc 2ee 2gg#
=70	=70	=70	=70	=70	=70
1r	N	144.877	newline	voice	1r
=71	=71	=71	=71	=71	=71
1r	N	146.969	.	voice	1r
=72	=72	=72	=72	=72	=72
1r	N	149.06	.	voice	1r
=73	=73	=73	=73	=73	=73
1r	N	151.151	.	voice	1r
=74	=74	=74	=74	=74	=74
*>B_verse	*>B_verse	*>B_verse	*>B_verse	*>B_verse	*>B_verse
4i7d	A:min7/b7	153.243	newline	voice	4a 4cc 4ee 4G#
4i7g	A:min7/6	153.766	.	voice	4A 4cc 4ee 4gg#
2V+7	E:aug(b7)	154.29	.	voice	2E 2g# 2b# 2dd
=75	=75	=75	=75	=75	=75
2V+7	E:aug(b7)	155.337	.	voice	2E 2g# 2b# 2dd
2i7	A:min9	156.384	.	voice	2A 2cc 2ee 2gg#
=76	=76	=76	=76	=76	=76
4i7d	A:min7/b7	157.431	.	voice	4a 4cc 4ee 4G#
4i7g	A:min7/6	157.955	.	voice	4A 4cc 4ee 4gg#
2V+7	E:aug(b7)	158.479	.	voice	2E 2g# 2b# 2dd
=77	=77	=77	=77	=77	=77
2V+7	E:aug(b7)	159.526	.	voice	2E 2g# 2b# 2dd
2i7	A:min9	160.573	.	voice	2A 2cc 2ee 2gg#
=78	=78	=78	=78	=78	=78
4i7d	A:min7/b7	161.62	newline	voice	4a 4cc 4ee 4G#
4i7g	A:min7/6	162.145	.	voice	4A 4cc 4ee 4gg#
2V+7	E:aug(b7)	162.67	.	voice	2E 2g# 2b# 2dd
=79	=79	=79	=79	=79	=79
2V+7	E:aug(b7)	163.721	.	voice	2E 2g# 2b# 2dd
2i7	A:min9	164.771	.	voice	2A 2cc 2ee 2gg#
=80	=80	=80	=80	=80	=80
4i7d	A:min7/b7	165.821	.	voice	4a 4cc 4ee 4G#
4i7g	A:min7/6	166.347	.	voice	4A 4cc 4ee 4gg#
2V+7	E:aug(b7)	166.872	.	voice	2E 2g# 2b# 2dd
=81	=81	=81	=81	=81	=81
1r	N	167.922	.	voice	1r
=82	=82	=82	=82	=82	=82
*>C_chorus	*>C_chorus	*>C_chorus	*>C_chorus	*>C_chorus	*>C_chorus
4i7d	A:min7/b7	170.023	newline	voice	4a 4cc 4ee 4G#
4i7g	A:min7/6	170.542	.	voice	4A 4cc 4ee 4gg#
2V+7	E:aug(b7)	171.061	.	voice	2E 2g# 2b# 2dd
=83	=83	=83	=83	=83	=83
2V+7	E:aug(b7)	172.099	.	voice	2E 2g# 2b# 2dd
2i7	A:min9	173.138	.	voice	2A 2cc 2ee 2gg#
=84	=84	=84	=84	=84	=84
4i7d	A:min7/b7	174.176	.	voice	4a 4cc 4ee 4G#
4i7g	A:min7/6	174.695	.	voice	4A 4cc 4ee 4gg#
2V+7	E:aug(b7)	175.214	.	voice	2E 2g# 2b# 2dd
=85	=85	=85	=85	=85	=85
2V+7	E:aug(b7)	176.252	.	voice	2E 2g# 2b# 2dd
2i7	A:min9	177.291	.	voice	2A 2cc 2ee 2gg#
=86	=86	=86	=86	=86	=86
4i7d	A:min7/b7	178.329	newline	voice	4a 4cc 4ee 4G#
4i7g	A:min7/6	178.856	.	voice	4A 4cc 4ee 4gg#
2V+7	E:aug(b7)	179.383	.	voice	2E 2g# 2b# 2dd
=87	=87	=87	=87	=87	=87
2V+7	E:aug(b7)	180.438	.	voice	2E 2g# 2b# 2dd
2i7	A:min9	181.492	.	voice	2A 2cc 2ee 2gg#
=88	=88	=88	=88	=88	=88
4i7d	A:min7/b7	182.546	.	voice	4a 4cc 4ee 4G#
4i7g	A:min7/6	183.073	.	voice	4A 4cc 4ee 4gg#
2V+7	E:aug(b7)	183.601	.	voice	2E 2g# 2b# 2dd
=89	=89	=89	=89	=89	=89
1r	N	184.655	.	voice	1r
=90	=90	=90	=90	=90	=90
*>C_instrumental	*>C_instrumental	*>C_instrumental	*>C_instrumental	*>C_instrumental	*>C_instrumental
4i7d	A:min7/b7	186.764	newline	voice	4a 4cc 4ee 4G#
4i7g	A:min7/6	187.288	.	voice	4A 4cc 4ee 4gg#
2V+7	E:aug(b7)	187.812	.	voice	2E 2g# 2b# 2dd
=91	=91	=91	=91	=91	=91
2V+7	E:aug(b7)	188.86	.	voice	2E 2g# 2b# 2dd
2i7	A:min9	189.908	.	voice	2A 2cc 2ee 2gg#
=92	=92	=92	=92	=92	=92
4i7d	A:min7/b7	190.956	.	voice	4a 4cc 4ee 4G#
4i7g	A:min7/6	191.48	.	voice	4A 4cc 4ee 4gg#
2V+7	E:aug(b7)	192.004	.	voice	2E 2g# 2b# 2dd
=93	=93	=93	=93	=93	=93
2V+7	E:aug(b7)	193.052	.	voice	2E 2g# 2b# 2dd
2i7	A:min9	194.1	.	voice	2A 2cc 2ee 2gg#
=94	=94	=94	=94	=94	=94
4i7d	A:min7/b7	195.148	newline	voice	4a 4cc 4ee 4G#
4i7g	A:min7/6	195.668	.	voice	4A 4cc 4ee 4gg#
2V+7	E:aug(b7)	196.188	.	voice	2E 2g# 2b# 2dd
=95	=95	=95	=95	=95	=95
2V+7	E:aug(b7)	197.228	.	voice	2E 2g# 2b# 2dd
2i7	A:min9	198.268	.	voice	2A 2cc 2ee 2gg#
=96	=96	=96	=96	=96	=96
4i7d	A:min7/b7	199.308	.	voice	4a 4cc 4ee 4G#
4i7g	A:min7/6	199.828	.	voice	4A 4cc 4ee 4gg#
2V+7	E:aug(b7)	200.348	.	voice	2E 2g# 2b# 2dd
=97	=97	=97	=97	=97	=97
1r	N	201.389	.	voice	1r
=98	=98	=98	=98	=98	=98
*>_fadeout	*>_fadeout	*>_fadeout	*>_fadeout	*>_fadeout	*>_fadeout
4i7d	A:min7/b7	203.469	newline	voice	4a 4cc 4ee 4G#
4i7g	A:min7/6	203.996	.	voice	4A 4cc 4ee 4gg#
2V+7	E:aug(b7)	204.524	.	voice	2E 2g# 2b# 2dd
=99	=99	=99	=99	=99	=99
2V+7	E:aug(b7)	205.579	.	voice	2E 2g# 2b# 2dd
2i7	A:min9	206.634	.	voice	2A 2cc 2ee 2gg#
=100	=100	=100	=100	=100	=100
4i7d	A:min7/b7	207.689	.	voice	4a 4cc 4ee 4G#
4i7g	A:min7/6	208.216	.	voice	4A 4cc 4ee 4gg#
2V+7	E:aug(b7)	208.744	.	voice	2E 2g# 2b# 2dd
=101	=101	=101	=101	=101	=101
2V+7	E:aug(b7)	209.799	.	voice	2E 2g# 2b# 2dd
2i7	A:min9	210.854	.	voice	2A 2cc 2ee 2gg#
=102	=102	=102	=102	=102	=102
4i7d	A:min7/b7	211.909	newline	voice	4a 4cc 4ee 4G#
4i7g	A:min7/6	212.335	.	voice	4A 4cc 4ee 4gg#
2V+7	E:aug(b7)	212.762	.	voice	2E 2g# 2b# 2dd
=103	=103	=103	=103	=103	=103
2V+7	E:aug(b7)	213.615	.	voice	2E 2g# 2b# 2dd
2i7	A:min9	214.468	.	voice	2A 2cc 2ee 2gg#
=104	=104	=104	=104	=104	=104
4i7d	A:min7/b7	215.32	.	voice	4a 4cc 4ee 4G#
4i7g	A:min7/6	215.747	.	voice	4A 4cc 4ee 4gg#
2V+7	E:aug(b7)	216.173	.	voice	2E 2g# 2b# 2dd
=105	=105	=105	=105	=105	=105
1r	N	217.026	.	voice	1r
1r;	N	218.732	.	r	1r;
1r;	N	221.44	.	r	1r;
*-	*-	*-	*-	*-	*-
!!!OTL: Me Myself And I
!!!COC: De La Soul
!!!BillboardChartDate: 1989/09/09
!!!BillboardPeak: 34
!!!BillboardWeeksOnChart: 17
!!!SampleTargetRank: 99
!!!SampleActualRank: 99
!!!SampleID#: 0887
!!!RDF**harmony: **recip + pitch class of root + harmonic quality
!!!RDF**harte: Chris Harte's syntax, used by MIREX
!!!RDF**phrase: newline = linebreak in original McGill transcription
!!!RDF**timestamp: McGill audio timestamp in seconds
!!!RDF**leadinstrument: original McGill primary instrumentation annotation
!!!RDT: 2017/01/12/
!!!ENC: Nathaniel Condit-Schultz
!!!EST: Awating manual error checking and editing.
